X:6956
T:Hector Josey's
R:jig
C:Hector MacKenzie
O:20th Century Cape Breton
D:The Lighthouse, Cranford Publications
B:The Lighthouse Collection, ISBN 0-9691181-5-5
N:http://www.cranfordpub.com
Q:300
L:1/8
M:6/8
K:Edor
z|EFE e2 c|d2 G FED|EFE e2 f|efg fga|!
EFE e2 c|d2 G FED|EGB efg|faf e2:|!
K:E
|:B|ebg ebg|ege fdB|ebg ege|Bcd e2 B|!
ebg ege|Bcd egb|e'2 g fed|egf e2:|]!
